icon-themes/breeze_svg/cmd/lc_symbolshapes.quad-bevel.svg

<svg viewBox="0 0 24 24" xmlns="http://www.w3.org/2000/svg"><path d="m4 4v11 5h11 5v-16h-5-6z" fill="#b3b3b3"/><path d="m4.6875 4 4 4h6.625l4-4h-1.3125-12zm-.6875.6875v14.625l4-4v-6.625zm16 0-4 4v6.625l4 4v-1.3125zm-11.3125 11.3125-4 4h1.3125 13.3125l-4-4z" fill="#4d4d4d"/></svg>

<svg xmlns="http://www.w3.org/2000/svg" viewBox="0 0 24 24">
 <path 
     style="fill:#b3b3b3" 
     d="M 4 4 L 4 15 L 4 20 L 15 20 L 20 20 L 20 4 L 15 4 L 9 4 L 4 4 z "
     />
 <path 
     style="fill:#4d4d4d" 
     d="M 4.6875 4 L 8.6875 8 L 15.3125 8 L 19.3125 4 L 18 4 L 6 4 L 4.6875 4 z M 4 4.6875 L 4 19.3125 L 8 15.3125 L 8 8.6875 L 4 4.6875 z M 20 4.6875 L 16 8.6875 L 16 15.3125 L 20 19.3125 L 20 18 L 20 4.6875 z M 8.6875 16 L 4.6875 20 L 6 20 L 19.3125 20 L 15.3125 16 L 8.6875 16 z "
     />
 </svg>
